!!!OTL: Die dienende Schwester Es wohnt ein Pfalzgraf ueber dem Rhein,
!!!ARE: Europa, Mitteleuropa, Deutschland (BRD), Rheinpfalz
!!!YOR: 4, S. 106
!!    1909 gedruckt in Kaiserslautern
!!!SCT: Q0075K
!!!YEM: Copyright 1995, estate of Helmut Schaffrath.
**kern
*ICvox
*Ivox
*M2/4
*k[b-]
*F:
{8c
=1
8f
8f
8f
8f
=2
16g
16g
8g
8c}
{8c
=3
8f
8f
8f
8f
=4
8g
8g
8c}
{8c
=5
4c
4c
=6
4b-
8a
8g
=7
4a
4g
=8
4f
8r}
==
!!!AGN: Ballade, Adelige als Dienstmagd, Tod; Kinder - Spiel, Tanz
!!!ONB: ESAC (Essen Associative Code) Database: BALLADE
!!!AMT: simple duple
!!!AIN: vox
!!!EED: Helmut Schaffrath
!!!EEV: 1.0
*-
